build/category/ClipboardSolid.svg

<svg xmlns="http://www.w3.org/2000/svg" fill="none" viewBox="0 0 24 24" focusable="false"><path d="M0 0H24V24H0z"/><path fill="#74767B" fill-rule="evenodd" d="M10.1259 5C10.0445 4.78215 10 4.54629 10 4.30005C10 3.19548 10.8954 2.30005 12 2.30005C13.1046 2.30005 14 3.19548 14 4.30005C14 4.54629 13.9555 4.78215 13.8741 5L16 5C17.6569 5 19 6.34315 19 8L19 18C19 19.6569 17.6569 21 16 21L8 21C6.34315 21 5 19.6569 5 18L5 8C5 6.34315 6.34315 5 8 5L10.1259 5ZM11.9916 5C11.6089 4.99552 11.3 4.68386 11.3 4.30005C11.3 3.91345 11.6134 3.60005 12 3.60005C12.3866 3.60005 12.7 3.91345 12.7 4.30005C12.7 4.68386 12.3911 4.99552 12.0084 5L11.9916 5ZM11.9859 6.3L9.34733 6.3C9.52721 7.04587 10.1989 7.6 11 7.6L13 7.6C13.8011 7.6 14.4728 7.04587 14.6527 6.3L12.0141 6.3C12.0094 6.30003 12.0047 6.30005 12 6.30005C11.9953 6.30005 11.9906 6.30003 11.9859 6.3ZM14.4399 11.5215C14.7042 11.7645 14.7215 12.1756 14.4785 12.4399L12.1926 14.9263C11.8269 15.3241 11.2036 15.3372 10.8215 14.9551L9.54038 13.674C9.28654 13.4202 9.28654 13.0086 9.54038 12.7548C9.79422 12.5009 10.2058 12.5009 10.4596 12.7548L11.4826 13.7778L13.5215 11.5601C13.7645 11.2958 14.1756 11.2785 14.4399 11.5215Z"/></svg>

<svg xmlns="http://www.w3.org/2000/svg" fill="none" viewBox="0 0 24 24" focusable="false"><path fill="#74767B" fill-rule="evenodd" d="M10.12 5a2 2 0 0 1-.12-.7c0-1.11.89-2 2-2a2 2 0 0 1 2 2c0 .24-.05.48-.13.7H16c1.65 0 3 1.34 3 3v10c0 1.65-1.35 3-3 3H8c-1.66 0-3-1.35-3-3V8c0-1.66 1.34-3 3-3zm1.87 0a.71.71 0 0 1-.7-.7c0-.39.32-.7.71-.7.38 0 .7.31.7.7 0 .38-.31.69-.7.7zm-.01 1.29H9.34c.18.75.85 1.3 1.66 1.3h2c.8 0 1.47-.55 1.65-1.3h-2.64L12 6.3c-.01 0-.01 0-.02-.01m2.45 5.23c.27.24.29.65.04.91l-2.28 2.49c-.37.4-.99.41-1.37.03l-1.28-1.28a.64.64 0 0 1 0-.92c.25-.25.66-.25.91 0l1.03 1.02 2.04-2.21c.24-.27.65-.29.91-.04"/></svg>
